Numix/64/mimetypes/text-x-readme.svg

<?xml version="1.0" encoding="UTF-8" standalone="no"?>
<svg
   xmlns:dc="http://purl.org/dc/elements/1.1/"
   xmlns:cc="http://creativecommons.org/ns#"
   xmlns:rdf="http://www.w3.org/1999/02/22-rdf-syntax-ns#"
   xmlns:svg="http://www.w3.org/2000/svg"
   xmlns="http://www.w3.org/2000/svg"
   xmlns:sodipodi="http://sodipodi.sourceforge.net/DTD/sodipodi-0.dtd"
   xmlns:inkscape="http://www.inkscape.org/namespaces/inkscape"
   width="64px"
   height="64px"
   viewBox="0 0 64 64"
   version="1.1"
   id="svg2"
   inkscape:version="0.91 r13725"
   sodipodi:docname="text-x-readme.svg">
  <metadata
     id="metadata21">
    <rdf:RDF>
      <cc:Work
         rdf:about="">
        <dc:format>image/svg+xml</dc:format>
        <dc:type
           rdf:resource="http://purl.org/dc/dcmitype/StillImage" />
      </cc:Work>
    </rdf:RDF>
  </metadata>
  <defs
     id="defs19" />
  <sodipodi:namedview
     pagecolor="#ffffff"
     bordercolor="#666666"
     borderopacity="1"
     objecttolerance="10"
     gridtolerance="10"
     guidetolerance="10"
     inkscape:pageopacity="0"
     inkscape:pageshadow="2"
     inkscape:window-width="1920"
     inkscape:window-height="1013"
     id="namedview17"
     showgrid="false"
     inkscape:zoom="3.6875"
     inkscape:cx="-2.9830508"
     inkscape:cy="32"
     inkscape:window-x="0"
     inkscape:window-y="27"
     inkscape:window-maximized="1"
     inkscape:current-layer="svg2" />
  <path
     inkscape:connector-curvature="0"
     id="path5"
     d="M 10.671875,0 C 9.296875,0 8,1.355469 8,2.789062 L 8,61.210938 C 8,62.566406 9.375,64 10.671875,64 l 42.65625,0 C 54.625,64 56,62.566406 56,61.210938 L 56,18 38,0 Z m 0,0"
     style="fill:#dcdcdc;fill-opacity:1;fill-rule:nonzero;stroke:none" />
  <path
     inkscape:connector-curvature="0"
     id="path7"
     d="m 42,18 14,14 0,-14 z m 0,0"
     style="fill:#000000;fill-opacity:0.19607801;fill-rule:nonzero;stroke:none" />
  <path
     inkscape:connector-curvature="0"
     id="path9"
     d="M 38,0 55.984375,18 40.757812,18 C 39.410156,18 38,16.574219 38,15.226562 Z m 0,0"
     style="fill:#ffffff;fill-opacity:0.39215698;fill-rule:nonzero;stroke:none" />
  <path
     inkscape:connector-curvature="0"
     id="path11"
     d="M 32,24 C 24.265625,24 18,30.269531 18,37.996094 18,45.730469 24.265625,52 32,52 39.734375,52 46,45.730469 46,37.996094 46,30.269531 39.734375,24 32,24 Z m 0,2.796875 c 6.183594,0 11.195312,5.011719 11.195312,11.199219 0,6.1875 -5.011718,11.207031 -11.195312,11.207031 -6.183594,0 -11.195312,-5.019531 -11.195312,-11.207031 0,-6.1875 5.011718,-11.199219 11.195312,-11.199219 z m 0,0"
     style="fill:#888888;fill-opacity:1;fill-rule:nonzero;stroke:none" />
  <path
     inkscape:connector-curvature="0"
     id="path13"
     d="m 34.796875,32.402344 c 0,1.539062 -1.253906,2.796875 -2.796875,2.796875 -1.550781,0 -2.796875,-1.257813 -2.796875,-2.796875 0,-1.550782 1.246094,-2.808594 2.796875,-2.808594 1.542969,0 2.796875,1.257812 2.796875,2.808594 z m 0,0"
     style="fill:#888888;fill-opacity:1;fill-rule:nonzero;stroke:none" />
  <path
     inkscape:connector-curvature="0"
     id="path15"
     d="m 30.597656,36.601562 2.804688,0 c 1.394531,0 1.394531,-0.0078 1.394531,1.394532 l 0,7.007812 c 0,1.394532 0.0078,1.394532 -1.394531,1.394532 l -2.804688,0 c -1.394531,0 -1.394531,0.0078 -1.394531,-1.394532 l 0,-7.007812 c 0,-1.394532 -0.0078,-1.394532 1.394531,-1.394532 z m 0,0"
     style="fill:#888888;fill-opacity:1;fill-rule:nonzero;stroke:none" />
</svg>

<svg xmlns="http://www.w3.org/2000/svg" viewBox="0 0 64 64">
 <path d="m 10.672 0 c -1.375 0 -2.672 1.355 -2.672 2.789 l 0 58.42 c 0 1.355 1.375 2.789 2.672 2.789 l 42.656 0 c 1.297 0 2.672 -1.434 2.672 -2.789 l 0 -43.21 -18 -18 m -27.328 0" style="fill:#dcdcdc;fill-opacity:1;stroke:none;fill-rule:nonzero"/>
 <path d="m 42 18 14 14 0 -14 z m 0 0" style="fill:#000;fill-opacity:0.196;stroke:none;fill-rule:nonzero"/>
 <path d="m 38 0 17.984 18 -15.227 0 c -1.348 0 -2.758 -1.426 -2.758 -2.773 m 0 -15.227" style="fill:#fff;fill-opacity:0.392;stroke:none;fill-rule:nonzero"/>
 <path d="m 32 24 c -7.734 0 -14 6.27 -14 13.996 0 7.734 6.266 14 14 14 7.734 0 14 -6.27 14 -14 0 -7.727 -6.266 -13.996 -14 -13.996 m 0 2.797 c 6.184 0 11.195 5.01 11.195 11.199 0 6.188 -5.01 11.207 -11.195 11.207 -6.184 0 -11.195 -5.02 -11.195 -11.207 0 -6.188 5.01 -11.199 11.195 -11.199 z m 0 0" style="fill:#888;fill-opacity:1;stroke:none;fill-rule:nonzero"/>
 <path d="m 34.797 32.402 c 0 1.539 -1.254 2.797 -2.797 2.797 -1.551 0 -2.797 -1.258 -2.797 -2.797 0 -1.551 1.246 -2.809 2.797 -2.809 1.543 0 2.797 1.258 2.797 2.809 z m 0 0" style="fill:#888;fill-opacity:1;stroke:none;fill-rule:nonzero"/>
 <path d="m 30.598 36.602 2.805 0 c 1.395 0 1.395 -0.008 1.395 1.395 l 0 7.01 c 0 1.395 0.008 1.395 -1.395 1.395 l -2.805 0 c -1.395 0 -1.395 0.008 -1.395 -1.395 l 0 -7.01 c 0 -1.395 -0.008 -1.395 1.395 -1.395 z m 0 0" style="fill:#888;fill-opacity:1;stroke:none;fill-rule:nonzero"/>
</svg>
